X: 41071
T: Trip To Orlando, The
R: jig
M: 6/8
K: Gmajor
|:GdG eGd|GdG (3ABe d|GdG eG(g|g)ed BdA|
GdG eGd|GdG (3Age d|GdB ~g3|edg edB||
~G2 D ~E2 D|Ged BAd|~G2 d ~E2 D|GE(B B)e(g|
g)dg edB|(3Age d BAG|GEB AGE|~G3 dBA:|

